!!!!SEGMENT: pl-kk--kk-i-204--002_anonim--justus-ut-palma-florebit.krn
!!!cenid: 16xx:763
!!!COM: Anonim
!!!COM-rismid: pe30004985
!!!CDT:
!!!CNT:
!!!OTL: Justus ut palma florebit
!!!PDT:
!!!AGN: Sacred
!!!SMS-siglum: PL-Kk
!!!SMS-shelfmark: Kk.I.204
!!!SMS-shelfwork: 002 W
!!!SMS-variant:
!!!SMS-altvar:
!!!NIFC-rismid: 1001143752
!!!URL-scan: http://repozytorium.nifc.pl/skany/pl-kk-nut--i-204
!!!ONB-nifc: UWAGA: utwory w zbiorze: 1. Justus germinabit, 2. Justus ut palma florebit
!!!AIN: 1 alto 2 empty 1 tenor 1 vox
!!!key:
**kern	**text	**kern	**text	**kern	**text	**kern	**text	**kern	**text
*part5	*part5	*part4	*part4	*part3	*part3	*part2	*part2	*part1	*part1
*staff5	*staff5	*staff4	*staff4	*staff3	*staff3	*staff2	*staff2	*staff1	*staff1
*Iempty	*	*Iempty	*	*Itenor	*	*Ialto	*	*Ivox	*
*I"Baſso Ripieno.	*	*I"Baſso.	*	*I"Tenor.	*	*I"Alto	*	*I"Canto.	*
*I'B rip	*	*I'B	*	*I'T	*	*I'A	*	*I'S	*
*clefF4	*	*clefF4	*	*clefC4	*	*clefC3	*	*clefC1	*
*k[b-]	*	*k[b-]	*	*k[b-]	*	*k[b-]	*	*k[b-]	*
*F:	*	*F:	*	*F:	*	*F:	*	*F:	*
*M3/2	*	*M3/2	*	*M3/2	*	*M3/2	*	*M3/2	*
=1	=1	=1	=1	=1	=1	=1	=1	=1	=1
*2\right	*	*2\right	*	*2\right	*	*2\right	*	*2\right	*
!LO:TX:a:t=P:problem=znaki BB- B-	!	!LO:TX:a:t=P:problem=znaki BB- B-	!	!	!	!	!	!	!
2F\	Ju-	2F\	Ju-	2f\	Ju-	2a\	Ju-	2cc\	Ju-
!LO:TX:a:t=P:global:problem=oddechy jako rozdzielacze słów	!	!LO:TX:a:t=P:global:problem=oddechy jako rozdzielacze słów	!	!LO:TX:a:t=P:global:problem=oddechy jako rozdzielacze słów	!	!LO:TX:a:t=P:global:problem=oddechy jako rozdzielacze słów	!	!LO:TX:a:t=P:global:problem=oddechy jako rozdzielacze słów	!
2c,<\	-stus	2c,<\	-stus	2e,<\	-stus	2g,<\	-stus	2cc,<\	-st(us)
2A\	ut	2A\	ut	2f\	ut	2a\	ut	2cc\	ut
=2	=2	=2	=2	=2	=2	=2	=2	=2	=2
2B-X\	Pal-	2B-\	pal-	2d\	Pal-	2f\	Pal-	2dd\	Pal-
2G,<\	-ma	2G,<\	-ma	2e,<\	-ma	2b-,<\	-ma	2b-,<\	-ma
*	*	*	*	*	*	*custos:g	*	*	*
2F\	flo-	2F\	flo-	2f\	flo-	2a\	flo-	2cc\	flo-
!	!	!	!	!	!	!LO:LB:g=original	!	!	!
=3	=3	=3	=3	=3	=3	=3	=3	=3	=3
1c	-re-	1c	-re-	1f	-re-	1g	-re-	1cc	-re-
2C,</	-bit	2C/	-bit	2e,<\	-bit	2g,<\	-bit:	2cc,<\	-bit
=4	=4	=4	=4	=4	=4	=4	=4	=4	=4
*	*ij	*	*	*	*	*	*	*	*
2C/	Ju-	2C/	Ju-	2e\	Ju-	2g\	Ju-	2cc\	Ju-
2G,<\	-stus	2G,<\	-st(us)	2d\	-st(us)	2g\	-stus	2bn,<\	-stus
*	*	*custos:F	*	*	*	*	*	*	*
2E\	ut	2E\	ut	2e\	ut	2g\	ut	2cc\	ut
!	!	!LO:LB:g=original	!	!	!	!	!	!	!
=5	=5	=5	=5	=5	=5	=5	=5	=5	=5
2F\	pal-	2F\	pal-	2c\	pal-	2a\	pal-	2cc\	Pal-
2D,</	-ma	2D,</	-ma	2d,<\	-ma	2f,<\	-ma	2bn,<\	-ma
2C/	flo-	2C/	flo-	2e\	flo-	2g\	flo-	2cc\	flo-
=6	=6	=6	=6	=6	=6	=6	=6	=6	=6
1G	-re-	1G	-re-	1d	-re-	1g	-re-	1cc	-re-
2GG,</	-bit	2GG,</	-bit	2d\	-bit,	2g,<\	-bit.	2bn\	-bit,
*	*Xij	*	*	*	*	*	*	*	*
=7	=7	=7	=7	=7	=7	=7	=7	=7	=7
(2C/	si-	(2C/	si-	1.r	.	(2e\	si-	1.r	.
2D\)	.	2D\)	.	.	.	2f\)	.	.	.
2E\	-cut	2E\	-cut	.	.	2g\	-cut	.	.
=8	=8	=8	=8	=8	=8	=8	=8	=8	=8
2F\	Ce-	2F\	Ce-	(2c\	si-	2a\	Ce-	(2a\	si-
1En	-dr(us)	1E,<	-dr(us)	2d\)	.	1g	-drus	2bn\)	.
.	.	.	.	2e\	-cut	.	.	2cc\	-cut
=9	=9	=9	=9	=9	=9	=9	=9	=9	=9
(2D\	Li-	(2D\	Li-	2f\	Ce-	(2f\	Li-	2dd\	Ce-
2E\	.	2E\	.	1e	-dr(us)	2g\)	.	1cc	-dr(us)
2F\)	.	2F\)	.	.	.	2a\	.	.	.
=10	=10	=10	=10	=10	=10	=10	=10	=10	=10
2.G\	.	2.G\	.	(2d\	Li-	2.bn\	.	(2bn\	Li-
.	.	.	.	2e\	.	.	.	2cc\	.
4G\	-ba-	4G\	-ba-	.	.	4b\	-ba-	.	.
*	*	*	*	*	*	*	*	*custos:ee	*
2F\	-ni	2F\	-ni	2f\)	.	2a\	-ni	2dd\)	.
!	!	!	!	!	!	!	!	!LO:LB:g=original	!
=11	=11	=11	=11	=11	=11	=11	=11	=11	=11
2E\	mul-	2E\	mul-	2.g\	.	2g\	mul-	2.een\	.
2F\	-ti-	2F\	-ti-	.	.	2fn\	-ti-	.	.
.	.	.	.	4f\	-ba-	.	.	4dd\	-ba-
2G\	-pli-	2G\	-pli-	2f\	-ni.	2f\	-pli-	2dd\	-ni
!	!	!	!	!LO:LB:g=original	!	!	!	!	!
=12	=12	=12	=12	=12	=12	=12	=12	=12	=12
(2A\	-ca-	2A\	-ca-	2e\	mul-	(2e\	-ca-	2cc\	mul-
2E\)	.	2E\	.	2c\	-ti-	2g\)	.	2cc\	-ti-
2F\	.	2F\	.	2f\	-pli-	2a\	.	2cc\	-pli-
!LO:LB:g=original	!	!	!	!	!	!LO:LB:g=original	!	!	!
=13	=13	=13	=13	=13	=13	=13	=13	=13	=13
2D\	.	2D\	.	4f\	-ca-	2a\	.	1cc	-ca-
.	.	.	.	4e\	.	.	.	.	.
2G\	.	2G\	.	2.d\	.	2.g\	.	.	.
2GG/	bi-	2GG/	bi-	.	.	.	.	2bn\	-bi-
.	.	.	.	4d\	-bi-	4f\	-bi-	.	.
=14	=14	=14	=14	=14	=14	=14	=14	=14	=14
2C/	-tur.	2C/	-tur	2c\	-tur	4e,<\	-tur,	4cc,<\	-tur,
.	.	.	.	.	.	4c/	mul-	4e/	mul-
2r	.	2r	.	2r	.	2d\	-ti-	2f/	-ti-
2r	.	2r	.	2r	.	2en\	-pli-	2g/	-pli-
=15	=15	=15	=15	=15	=15	=15	=15	=15	=15
2F\	mul-	2F\	mul-	2A\	mul-	2f\	-ca-	2a\	-ca-
2G\	-ti-	2G\	-ti-	2B-X\	-ti-	1en	.	1g	.
2A\	-pli-	2A\	-pli-	2c\	-pli-	.	.	.	.
=16	=16	=16	=16	=16	=16	=16	=16	=16	=16
2B-\	-ca-	2B-\	-ca-	2d\	-ca-	(2d\	.	2f/	.
1A	.	1A	.	1c	.	2e\)	.	2g/	.
.	.	.	.	.	.	2f\	.	2a/	.
!	!	!LO:LB:g=original	!	!	!	!	!	!	!
=17	=17	=17	=17	=17	=17	=17	=17	=17	=17
(2G\	.	(2G\	.	(2B-\	.	2g\	.	2b-\	.
2A\	.	2A\)	.	2c\)	.	1f	.	1a	.
2B-\)	.	2B-\	.	2d\	.	.	.	.	.
=18	=18	=18	=18	=18	=18	=18	=18	=18	=18
2c\	.	2c\	.	2en\	.	(2e\	.	(2g\	.
1B-X	.	1B-	.	1d	.	2f\	.	2a\	.
.	.	.	.	.	.	2g\)	.	2b-\)	.
=19	=19	=19	=19	=19	=19	=19	=19	=19	=19
2.A\	.	2.A\	.	2c\	.	2.a\	.	2.cc\	.
.	.	.	.	4d\	.	.	.	.	.
4G\	bi-	4G\	bi-	4e\	.	4b-\	-bi-	4b-\	-bi-
2F,<\	-tur	2F\	-tur	2f\	.	2cc\	-tur	2a\	-tur
=20	=20	=20	=20	=20	=20	=20	=20	=20	=20
2C/	mul-	2C/	mul-	2e\	.	2g\	mul-	1.cc	mul-
2F\	-ti-	2F\	-ti-	2f\	.	2a\	-ti-	.	.
2C/	-pli-	2C/	-pli-	2e\	.	2c/	-pli-	.	.
=21	=21	=21	=21	=21	=21	=21	=21	=21	=21
2.G\	-ca-	(2.G\	-ca-	1d	.	(2d\	-ca-	2bn\	-ti-
.	.	.	.	.	.	4e\	.	1cc	-pli-
4F\	.	4F\)	.	.	.	4f\	.	.	.
2E\	.	2E\	.	2e\	.	2g\)	.	.	.
=22	=22	=22	=22	=22	=22	=22	=22	=22	=22
2.F\	.	2.F\	.	(2.c\	.	2.a\	.	[<1.ccT	-ca-
8E\L	.	8E\L	.	4d\	-[[bi-	8g\L	.	.	.
8D\J	.	8D\J	.	.	.	8f\J	.	.	.
2C/	.	2C/	.	2e\)	-tur]]-	2e\	.	.	.
!	!	!	!	!LO:LB:g=original	!	!LO:LB:g=original	!	!LO:LB:g=original	!
=23	=23	=23	=23	=23	=23	=23	=23	=23	=23
!	!	!	!	!	!	!	!	!LO:TX:t=P:problem=brak zakończenia ligatury	!
2F\	.	2F\	.	4f\	.	2a\	.	1cc]	.
.	.	.	.	4e\	.	.	.	.	.
2.G\	.	2.G\	.	2.d\	.	2g\	.	.	.
.	.	.	.	.	.	2g\	-bi-	2bn\	-bi-
*custos:C	*	*	*	*	*	*	*	*	*
4GG/	-bi-	4GG/	-bi-	4d\	-bi-	.	.	.	.
!LO:LB:g=original	!	!	!	!	!	!	!	!	!
=24	=24	=24-	=24	=24-	=24	=24-	=24	=24-	=24
*M2/2	*	*M2/2	*	*M2/2	*	*M2/2	*	*M2/2	*
*met(c|)	*	*met(c|)	*	*met(c|)	*	*met(c|)	*	*met(c|)	*
2C,</	-tur.	2C,</	-tur.	2e\	-tur.	2g,<\	-tur.	2cc,<\	-tur.
2r	.	2r	.	2r	.	2e\	Plan-	2g/	Plan-
*	*	*	*	*clefC3	*	*	*	*	*
=25	=25	=25	=25	=25	=25	=25	=25	=25	=25
!	!	!	!	!LO:TX:a:t=P:problem=pauza 0r poprawiona ołówkiem na 1r	!	!	!	!	!
1r	.	1r	.	0r	.	1f	-ta-	1a	-ta-
=26	=26	=26	=26	=26	=26	=26	=26	=26	=26
!LO:TX:t=P:problem=zbędny takt - T	!	!LO:TX:t=P:problem=zbędny takt - T	!	!LO:TX:t=P:problem=zbędny pusty takt	!	!LO:TX:t=P:problem=zbędny takt - T	!	!LO:TX:t=P:problem=zbędny takt - T	!
1ryy	.	1ryy	.	.	.	1ryy	.	1ryy	.
=27	=27	=27-	=27	=27	=27	=27	=27	=27	=27
2r	.	2r	.	2r	.	2e,<\	-tus	2g,</	-t(us)
*	*	*	*	*	*	*	*ij	*	*ij
2C/	Plan-	2C/	Plan-	2c\	Plan-	2e\	Plan-	2g/	Plan-
=28	=28	=28	=28	=28	=28	=28	=28	=28	=28
1F	-ta-	1F	-ta-	1c	-ta-	1f	-ta-	1a	-ta-
=29	=29	=29	=29	=29	=29	=29	=29	=29	=29
1C,<	-t(us)	1C	-tus	2c,<\	-t(us)	1e	-tus	2g,<\	-t(us)
*	*	*	*	*	*	*	*Xij	*	*Xij
.	.	.	.	2c\	in	.	.	2cc\	in
=30	=30	=30	=30	=30	=30	=30	=30	=30	=30
2r	.	2r	.	(2f\	Do-	2r	.	(2a\	Do-
2G\	in	2G\	in	2d\)	.	2g\	in	2b-X\)	.
=31	=31	=31	=31	=31	=31	=31	=31	=31	=31
(2c\	Do-	(2c\	Do-	1c	-mo	2e\	Do-	1cc,<	-mo
*	*	*custos:G	*	*	*	*	*	*	*
2A\)	.	2A\)	.	.	.	2f,<\	-mo	.	.
!	!	!LO:LB:g=original	!	!	!	!	!	!	!
=32	=32	=32	=32	=32	=32	=32	=32	=32	=32
2G,<\	-mo	2G,<\	-mo	2d,<\	in	2g,<\	in	1.b-X	Do-
1G\	Do-	1G\	Do-	1d\	Do-	[<2g\	Do-	.	.
=33-	=33	=33-	=33	=33-	=33	=33	=33	=33-	=33
.	.	.	.	.	.	2g\]	.	.	.
2F\	.	2F\	.	2d\	-mo	2g\	-mo	2b-\	-mi-
=34	=34	=34	=34	=34	=34	=34	=34	=34	=34
*	*	*	*	*	*	*	*ij	*	*
2.E-X\	.	2.E-X\	.	2e-X\	do-	2g\	Do-	2b-,<\	-ni
.	.	.	.	2e-\	-mo	(4g\	-mo	2b-\	Do-
*	*	*	*	*	*	*	*Xij	*	*
4E-\	-mo	4E-,<\	-mo	.	.	4f\)	.	.	.
=35	=35	=35	=35	=35	=35	=35	=35	=35	=35
!	!	!LO:SIC:v:s=2.E-	!	!	!	!	!	!	!
2.E-X\	Do-	2.E\	Do-	2.B-X/	Do-	2.e-X\	Do-	2.g/	.
!	!	!LO:SIC:v:s=4E-	!	!	!	!	!	!	!
4E-\	-mi-	4E\	-mi-	4B-/	-mi-	4e-\	-mi-	4g/	-mi-
=36	=36	=36	=36	=36	=36	=36	=36	=36	=36
2BB-,</	-ni	2BB-,</	-ni	2B-,</	-ni	2d,<\	-ni	2f,</	-ni
*	*	*	*	*	*	*custos:g	*	*	*
2B-\	in	2B-\	in	2B-/	in	2d\	in	2f/	in
!	!	!	!	!	!	!LO:LB:g=original	!	!	!
=37	=37	=37	=37	=37	=37	=37	=37	=37	=37
(2G\	Do-	2G\	Do-	2d\	Do-	2g\	Do-	2b-\	Do-
*	*	*	*	*custos:e-	*	*	*	*	*
2F\)	.	2F\	.	2d\	-mo	2g\	-mo	2b-\	-mo
!	!	!	!	!LO:LB:g=original	!	!	!	!	!
=38	=38	=38	=38	=38	=38	=38	=38	=38	=38
*	*	*	*	*	*	*	*ij	*	*
2E-X\	.	2E-X\	.	2e-X\	Do-	2g\	Do-	2b-\	do-
2E-,<\	-mo	2E-,<\	-mo	2e-\	-mi-	2g\	-mo	2b-\	-mo
*	*	*	*	*	*	*	*Xij	*	*
!	!	!	!	!	!	!	!	!LO:LB:g=original	!
=39	=39	=39	=39	=39	=39	=39	=39	=39	=39
!LO:SIC:v:s=2.E-	!	!LO:SIC:v:s=2.E-	!	!	!	!	!	!	!
2.E\	Do-	2.E\	Do-	1B-,<	-ni	2.e-X\	Do-	2.g/	Do-
*custos:BB	*	*	*	*	*	*	*	*	*
!LO:SIC:v:s=4E-	!	!LO:SIC:v:s=4E-	!	!	!	!	!	!	!
4E\	-mi-	4E\	-mi-	.	.	4e-\	-mi-	4g/	-mi-
!LO:LB:g=original	!	!	!	!	!	!	!	!	!
=40	=40	=40	=40	=40	=40	=40	=40	=40	=40
2BB-,</	-ni	2BB-,</	-ni	2B-/	in	2d,<\	-ni	2f,</	-ni
1B-\	in	1B-\	in	1d\	a-	2d\	in	2f/	in
=41-	=41	=41-	=41	=41-	=41	=41	=41	=41	=41
.	.	.	.	.	.	2B-/	a-	2g\	a-
2A\	a-	2A\	a-	2c\	-tri-	2c/	-tri-	2a\	-tri-
=42	=42	=42	=42	=42	=42	=42	=42	=42	=42
2G\	.	2G\	.	2B-,</	-js	2d,<\	-js	2b-,<\	-js
2G\	-tri-	2G\	-tri-	2B-/	do-	2e\	Do-	2b-\	Do-
=43	=43	=43	=43	=43	=43	=43	=43	=43	=43
2F,<\	-js	2F,<\	-js	2.c\	-m(ûs)	2f,<\	-mûs	2a,<\	-m(us)
1F\	Do-	1F\	Do-	.	.	4e-X\	De-	4cc\	De-
.	.	.	.	8d\L	De-	4d\	-i	4b-\	.
.	.	.	.	8e\J	.	.	.	.	.
=44-	=44	=44-	=44	=44	=44	=44	=44	=44	=44
.	.	.	.	(4f\	.	2c\	no-	(4a\	.
!	!	!	!	!LO:SIC:v:s=4e-	!	!	!	!	!
.	.	.	.	4e\	.	.	.	4g\	.
2F\	-mûs	2F\	-mûs	4d\	.	1d\	.	4f/	.
!	!	!	!	!	!	!	!	!LO:SIC:v:s=4e-	!
.	.	.	.	4c\)	.	.	.	4e/)	.
=45	=45	=45	=45	=45	=45	=45-	=45	=45	=45
2G\	De-	2G\	DE-	2B-/	.	.	.	2d,</	-i
2C/	-i	2C/	-i	2c/	-i	2e-X\	.	1g\	no-
=46	=46	=46	=46	=46	=46	=46	=46	=46-	=46
1D	no-	1D	no-	1A	no-	0.d;	-stri:	.	.
.	.	.	.	.	.	.	.	2f#X/	.
=47	=47	=47	=47	=47	=47	=47-	=47	=47	=47
!	!	!	!	!LO:TX:t=P:problem=♭ przy nucie, ♯ below	!	!	!	!	!
2GG;,</	-stri	2GG;,</	-ſtri.	1B-X;	-stri.	.	.	0g;,<	-stri
1G\	Et	[<2G\	et	.	.	.	.	.	.
!	!	!LO:LB:g=original	!	!	!	!	!	!	!
=48-	=48	=48	=48	=48	=48	=48-	=48	=48-	=48
!	!	!LO:TX:t=P:problem=brak dokończenia ligatury	!	!	!	!	!	!	!
.	.	2G\]	.	2r	.	.	.	.	.
2A\	flo-	2A\	flo-	1d\	Et	.	.	.	.
=49	=49	=49	=49	=49-	=49	=49	=49	=49	=49
1B-	-re-	1B-	-re-	.	.	0r	.	00r	.
.	.	.	.	2d\	flo-	.	.	.	.
=50	=50	=50	=50	=50	=50	=50	=50	=50	=50
2A,<\	-bit	2A\	-bit	1f	-re-	.	.	.	.
2B-\	flo-	2B-\	flo-	.	.	.	.	.	.
=51	=51	=51	=51	=51	=51	=51	=51	=51	=51
(2c\	-re-	(2c\	-re-	2e\	-bit	1r	.	.	.
2A\)	.	2A\)	.	2f\	in	.	.	.	.
=52	=52	=52	=52	=52	=52	=52	=52	=52	=52
1G,<	-bit	1G,<	-bit	2g\	.	2r	.	.	.
.	.	.	.	2g\	ae-	1d\	et	.	.
!	!	!	!	!LO:LB:g=original	!	!	!	!	!
=53	=53	=53	=53	=53	=53	=53-	=53	=53	=53
1.D	et	1.D	et	2.f\	-ter-	.	.	1.a	et
.	.	.	.	.	.	2d\	flo-	.	.
.	.	.	.	4e\	.	.	.	.	.
=54-	=54	=54-	=54	=54	=54	=54	=54	=54-	=54
.	.	.	.	1d	-num	2f\	-re-	.	.
2D/	flo-	2D\	flo-	.	.	2f\	-bit,	2b-\	flo-
=55	=55	=55	=55	=55	=55	=55	=55	=55	=55
2A\	-re-	2A\	-re-	0r	.	2e\	et	2cc\	-re-
2A,<\	-bit	2A\	-bit	.	.	2f\	flo-	2cc\	-bit
=56	=56	=56	=56	=56	=56	=56	=56	=56	=56
2G\	in	2G\	in	.	.	(2g\	-re-	2b-\	in
*	*	*	*	*	*	*custos:d	*	*	*
2A\	ae-	2A\	ae-	.	.	2e\)	.	2cc\	ae-
!	!	!	!	!	!	!LO:LB:g=original	!	!	!
=57	=57	=57	=57	=57	=57	=57	=57	=57	=57
(2B-\	-ter-	(2B-\	-ter-	2r	.	1d,<	-bit	(2dd\	-ter-
2G\)	.	2G\)	.	1d\	in	.	.	2b-\)	.
=58	=58	=58	=58	=58-	=58	=58	=58	=58	=58
1F,<	-num	1F	-num	.	.	2r	.	1a,<	-num
.	.	.	.	2c\	ae-	1a\	in	.	.
!LO:LB:g=original	!	!	!	!	!	!	!	!LO:LB:g=original	!
=59	=59	=59	=59	=59	=59	=59-	=59	=59	=59
0r	.	0r	.	2d\	-ter-	.	.	00r	.
.	.	.	.	2en\	.	2g\	ae-	.	.
=60	=60	=60	=60	=60	=60	=60	=60	=60	=60
.	.	.	.	2.f\	-num	2a\	-ter-	.	.
.	.	.	.	.	.	2d,</	-num	.	.
.	.	.	.	4e\	.	.	.	.	.
=61	=61	=61-	=61	=61	=61	=61	=61	=61	=61
2r	.	2r	.	2d\	an-	2f\	an-	.	.
1A\	an-	1A\	an-	2c/	-te	2.e\	-te	.	.
=62-	=62	=62-	=62	=62	=62	=62-	=62	=62	=62
.	.	.	.	2.f\	Do-	.	.	.	.
.	.	.	.	.	.	4e\	Do-	.	.
2F\	-te	2F\	-te	.	.	1d\	.	.	.
.	.	.	.	4f\	-mi-	.	.	.	.
=63	=63	=63	=63	=63	=63	=63-	=63	=63	=63
(2G\	Do-	(2G\	Do-	1e,<	-num	.	.	2r	.
2A\)	.	2A\)	.	.	.	2c#X/	-mi-	2a\	flo-
=64	=64	=64	=64	=64	=64	=64	=64	=64	=64
1B-	.	1B-	.	2r	.	1d,<	-num	2f/	-re-
.	.	.	.	2d\	flo-	.	.	2g/	-bit
=65	=65	=65	=65	=65	=65	=65	=65	=65	=65
2A\	.	2A\	.	2c/	-re-	00r	.	2a\	an-
1G\	.	1G\	.	2d/	-bit	.	.	1b-\	.
=66-	=66	=66-	=66	=66	=66	=66	=66	=66-	=66
.	.	.	.	2e\	in	.	.	.	.
2F\	.	2F\	.	2f\	ae-	.	.	2a\	-te
=67	=67	=67-	=67	=67	=67	=67	=67	=67	=67
2.G\	.	2.G\	.	2e\	-ter-	.	.	2g/	Do-
.	.	.	.	1d\	.	.	.	2f/	.
4G\	-mi-	4G\	-mi-	.	.	.	.	.	.
=68	=68	=68	=68	=68-	=68	=68	=68	=68	=68
1A,<	-num	1A,<	-num	.	.	.	.	2.e/	.
.	.	.	.	2c#X/	.	.	.	.	.
.	.	.	.	.	.	.	.	4e/	-mi-
!	!	!LO:LB:g=original	!	!	!	!	!	!	!
=69	=69	=69	=69	=69	=69	=69-	=69	=69	=69
*	*	*	*	*custos:A	*	*	*	*	*
2r	.	2r	.	1d,<	-num	2r	.	2d,</	-num
1D\	et	1D\	et	.	.	1f#X\	et	1a\	et
!	!	!	!	!LO:LB:g=original	!	!	!	!	!
=70-	=70	=70-	=70	=70	=70	=70-	=70	=70-	=70
.	.	.	.	(<2A/	et	.	.	.	.
2D/	flo-	2D\	flo-	1d\)	.	2f#\	flo-	2a\	flo-
=71	=71	=71	=71	=71-	=71	=71	=71	=71	=71
1G	-re-	(1G	-re-	.	.	1g	-re-	1bn	-re-
.	.	.	.	2d\	flo-	.	.	.	.
=72	=72	=72	=72	=72	=72	=72	=72	=72	=72
1C,<	bit	1C)	.	2e\	-re-	1g,<	-bit	1cc,<	-bit
.	.	.	.	2e\	-bit	.	.	.	.
=73	=73	=73	=73	=73	=73	=73	=73	=73	=73
*	*ij	*	*	*	*	*	*ij	*	*
2BB-/	et	2BB-,</	-bit	2f\	et	2b-X\	et	2dd\	et
*	*	*	*ij	*	*	*	*	*	*
2B-\	flo-	2B-\	flo-	2f\	flo-	2b-\	flo-	2dd\	flo-
=74	=74	=74	=74	=74	=74	=74	=74	=74	=74
2B-\	-re-	2B-\	-re-	2f\	-re-	2b-\	-re-	2dd\	-re-
2BB-,</	-bit	2BB-/	-bit	2f,<\	-bit	2b-\	-bit	2dd\	-bit
*	*Xij	*	*Xij	*	*	*	*Xij	*	*
=75	=75	=75	=75	=75	=75	=75	=75	=75	=75
1.F	in	1.F	in	2.f\	in	2a\	in	1.cc	in
.	.	.	.	.	.	2a\	ae-	.	.
.	.	.	.	4e\	.	.	.	.	.
=76-	=76	=76-	=76	=76	=76	=76	=76	=76-	=76
.	.	.	.	1d	ae-	2a\	-ter-	.	.
2G\	ae-	2G\	ae-	.	.	[<2g\	.	2b-\	ae-
=77	=77	=77	=77	=77	=77	=77	=77	=77	=77
!	!	!	!	!	!	!LO:N:xstem:cue	!	!	!
(2A\	-ter-	2A\	-ter-	2c/	-ter-	4g\]	.	2a\	-ter-
.	.	.	.	.	.	4g\	.	.	.
2B-\)	.	2B-\	.	2d/	.	1fn\	.	2f/	.
=78	=78	=78	=78	=78	=78	=78-	=78	=78	=78
1G	.	1G	.	1B-	.	.	.	1g	-num
.	.	.	.	.	.	2e,<\	-num	.	.
!	!	!	!	!	!	!	!	!LO:LB:g=original	!
=79	=79	=79	=79	=79	=79	=79	=79	=79	=79
1F,<	-num	1F,<	-num	1c	-num	2f\	an-	2a\	an-
.	.	.	.	.	.	2f\	-te	2a\	-te
!	!	!	!	!	!	!LO:LB:g=original	!	!	!
=80	=80	=80	=80	=80	=80	=80	=80	=80	=80
1r	.	1r	.	1r	.	(4B-X/	Do-	1dd	Do-
.	.	.	.	.	.	4c/	.	.	.
.	.	.	.	.	.	4d/)	.	.	.
.	.	.	.	.	.	4e/|	-mi-	.	.
!LO:LB:g=original	!	!	!	!	!	!	!	!	!
=81	=81	=81	=81	=81	=81	=81	=81	=81	=81
2F\	an-	2F\	an-	2A/	an-	2f,<\	-num	2cc\	.
2D/	-te	2D/	-te	2d\	-te	2f\	an-	2b-X\	-mi-
=82	=82	=82	=82	=82	=82	=82	=82	=82	=82
(4BB-/	Do-	(4BB-/	Do-	1d	Do-	2f,<\	-te	2b-,<\	-num
4C/	.	4C/	.	.	.	.	.	.	.
4D/	.	4D/	.	.	.	1f\	Do-	1b-\	an-
4E/)	.	4E/)	.	.	.	.	.	.	.
=83	=83	=83	=83	=83	=83	=83-	=83	=83-	=83
2.F\	.	2.F\	.	2c/	.	.	.	.	.
!	!	!	!	!	!	!LO:SIC:v:s=2e-	!	!	!
.	.	.	.	2c/	-mi-	2e\	.	2a\	-te
4F\	-mi-	4F\	-mi-	.	.	.	.	.	.
=84	=84	=84	=84	=84	=84	=84	=84	=84	=84
*	*	*	*	*	*	*lig	*	*	*
!	!	!	!	!	!	!LO:N:vis=0	!	!	!
2G,<\	-num	2G,<\	-num	2B-,</	-num	(1d	.	2g/	.
2D/	an-	2D\	an-	2A/	an-	.	.	2f/	Do-
=85	=85	=85	=85	=85	=85	=85-	=85	=85	=85
!	!	!	!	!	!	!LO:N:vis=0	!	!	!
(2En\	-te	(2En\	-te	2G/	.	1c)	.	2g\	.
*	*	*	*	*	*	*Xlig	*	*	*
2F\)	.	2F,<\)	.	2F/	-te	.	.	[<2a\	.
!	!	!LO:LB:g=original	!	!LO:LB:g=original	!	!	!	!	!
=86	=86	=86	=86	=86	=86	=86	=86	=86	=86
!	!	!	!	!	!	!	!	!LO:N:xstem:cue	!
(2D\	an-	(2D\	an-	1A	an-	2d\	mi-	4a\]	.
.	.	.	.	.	.	.	.	4g/	.
2F\)	.	2F\)	.	.	.	2c/	.	1f/	-mi-
=87	=87	=87	=87	=87	=87	=87	=87	=87-	=87
[1C	.	[1C	.	[1G	.	[<1c	-num	.	.
.	.	.	.	.	.	.	.	4e/	-num
.	.	.	.	.	.	.	.	4d,</	.
=88	=88	=88	=88	=88	=88	=88	=88	=88	=88
!	!	!	!	!LO:N:xstem:cue:vis=4	!	!	!	!	!
1C]	.	1C]	.	2G/]	.	1c,<]	.	2.e/	an-
.	.	.	.	2A/	.	.	.	.	.
.	.	.	.	.	.	.	.	4f/	.
=89	=89	=89	=89	=89	=89	=89	=89	=89	=89
[<1D	-te	[<1D	-te	[1Bn	-te	[<1f	an-	[<1g	te
=90	=90	=90	=90	=90	=90	=90	=90	=90	=90
!	!	!	!	!	!	!	!	!LO:TX:a:t=P:problem=pojedyncza kreska taktowa	!
1D;]	.	1D;;]	.	1B;;]	.	1f;;]	-te	1g;]	.
=91||	=91||	=91||	=91||	=91||	=91||	=91||	=91||	=91||	=91||
1C	Do-	1C	Do-	1c	Do-	(2en\	Do-	2g\	Do-
.	.	.	.	.	.	2f\)	.	2a\	.
=92	=92	=92	=92	=92	=92	=92	=92	=92	=92
[1C	.	[1C	.	[<1c	.	[<1f	.	[<1g	.
=93	=93	=93	=93	=93	=93	=93	=93	=93	=93
!LO:N:xstem:cue:vis=4	!	!LO:N:xstem:cue:vis=4	!	!LO:N:xstem:cue:vis=4	!	!LO:N:xstem:cue:vis=4	!	!LO:N:xstem:cue:vis=4	!
2C/]	.	2C/]	.	2c\]	.	2f\]	.	2g\]	.
2C/	-mi-	2C/	-mi-	2c\	-mi-	2e\	-mi-	2g/	-mi-
=94	=94	=94	=94	=94	=94	=94	=94	=94-	=94
0F;	-num.	0F;	-num	0c;	-num.	0f;	-num.	0a;	-num
=95-	=95	=95-	=95	=95	=95	=95	=95	=95	=95
!	!	!LO:TX:b:t=O. ad MDG	!	!	!	!	!	!LO:TX:b:t=O. ad MD.G	!
.	.	.	.	.	.	.	.	.	.
==	==	==	==	==	==	==	==	==	==
*-	*-	*-	*-	*-	*-	*-	*-	*-	*-
!!!system-decoration: [(s1,s2,s3,s4,s5)]
!!!RDF**kern: < = below
!!!ENC: Marta Lawrence
!!!END: 2021-02-19
!!!ENC: Krzysztof Stępień
!!!END: 2021-02-12
!!!RDF**kern: | = vertical stroke
